;FLAVOR:Marlin
;TIME:1049
;Filament used: 0.827914m
;Layer height: 0.2
;MINX:80.82
;MINY:73.713
;MINZ:0.2
;MAXX:129.176
;MAXY:136.271
;MAXZ:5.4
;Generated with Cura_SteamEngine 4.11.0
M140 S60
M105
M190 S60
M104 S200
M105
M109 S200
M82 ;absolute extrusion mode
G21 ;metric values
G90 ;absolute positioning
M82 ;set extruder to absolute mode
M107 ;start with the fan off
G28 X0 Y0 ;move X/Y to min endstops
G28 Z0 ;move Z to min endstops
G1 Z15.0 F100 ;move the platform down 15mm
G92 E0 ;zero the extruded length
G1 F200 E3 ;extrude 3mm of feed stock
G92 E0 ;zero the extruded length again
G1 F100
G0 Y20 F100
M117 Printing...
G5
G92 E0
G92 E0
G1 F2400 E-6
;LAYER_COUNT:27
;LAYER:0
M107
M204 S3000
M205 X10 Y10
G1 F600 Z0.275
G0 F3000 X89.075 Y81.167 Z0.275
M204 S1800
M205 X8 Y8
;TYPE:SKIRT
G1 F600 Z0.2
G1 F2400 E0
G1 X89.562 Y80.671 E0.03237
G1 X89.956 Y80.298 E0.05763
G1 X90.355 Y79.945 E0.08244
G1 X90.898 Y79.498 E0.11519
G1 X91.376 Y79.136 E0.14311
G1 X94.26 Y77.159 E0.30592
G1 X96.806 Y75.28 E0.45326
G1 X97.256 Y74.952 E0.47919
G1 X97.857 Y74.564 E0.5125
G1 X98.497 Y74.245 E0.5458
G1 X99.169 Y73.999 E0.57912
G1 X99.864 Y73.83 E0.61243
G1 X100.749 Y73.73 E0.6539
G1 X101.647 Y73.713 E0.69572
G1 X103.247 Y73.735 E0.77023
G1 X105.744 Y73.743 E0.8865
G1 X106.449 Y73.753 E0.91934
G1 X107.162 Y73.803 E0.95262
G1 X107.866 Y73.932 E0.98594
G1 X108.55 Y74.139 E1.01922
G1 X109.208 Y74.421 E1.05256
G1 X110.008 Y74.899 E1.09595
G1 X110.083 Y74.947 E1.1001
G1 X112.281 Y76.432 E1.22361
G1 X114.493 Y77.839 E1.34568
G1 X116.368 Y78.943 E1.447
G1 X117.921 Y79.889 E1.53168
G1 X118.466 Y80.24 E1.56186
G1 X118.71 Y80.406 E1.5756
G1 X119.219 Y80.771 E1.60477
G1 X119.923 Y81.316 E1.64622
G1 X120.36 Y81.68 E1.67271
G1 X120.747 Y82.025 E1.69685
G1 X121.347 Y82.596 E1.73542
G1 X121.862 Y83.132 E1.77003
G1 X122.316 Y83.654 E1.80224
G1 X122.593 Y83.996 E1.82274
G1 X122.927 Y84.438 E1.84853
G1 X123.357 Y85.057 E1.88363
G1 X123.748 Y85.7 E1.91867
G1 X124.012 Y86.18 E1.94418
G1 X124.238 Y86.643 E1.96817
G1 X124.561 Y87.369 E2.00517
G1 X124.868 Y88.156 E2.0445
G1 X125.069 Y88.744 E2.07344
G1 X125.94 Y91.213 E2.19535
G1 X126.898 Y93.705 E2.31967
G1 X127.869 Y96.005 E2.43592
G1 X128.029 Y96.4 E2.45576
G1 X128.269 Y97.109 E2.49062
G1 X128.401 Y97.59 E2.51384
G1 X128.546 Y98.26 E2.54576
G1 X128.657 Y99.041 E2.58249
G1 X128.808 Y100.714 E2.66071
G1 X128.829 Y100.874 E2.66823
G1 X128.943 Y102.176 E2.72909
G1 X129.012 Y102.8 E2.75832
G1 X129.128 Y104.078 E2.81807
G1 X129.152 Y104.481 E2.83687
G1 X129.176 Y105.352 E2.87744
G1 X129.166 Y105.912 E2.90352
G1 X129.113 Y106.559 E2.93375
G1 X129.008 Y107.257 E2.96662
G1 X128.732 Y108.629 E3.03179
G1 X128.677 Y108.887 E3.04407
G1 X128.192 Y111.519 E3.16869
G1 X127.782 Y114.149 E3.29263
G1 X127.447 Y116.677 E3.41138
G1 X127.308 Y117.599 E3.45479
G1 X127.159 Y118.472 E3.49603
G1 X127.127 Y118.643 E3.50413
G1 X127.021 Y119.176 E3.52944
G1 X126.843 Y119.869 E3.56275
G1 X126.658 Y120.375 E3.58784
G1 X126.473 Y120.819 E3.61024
G1 X125.93 Y122.073 E3.67387
G1 X125.591 Y122.782 E3.71046
G1 X125.109 Y123.605 E3.75487
G1 X124.667 Y124.21 E3.78976
G1 X124.419 Y124.514 E3.80803
G1 X124.052 Y124.948 E3.8345
G1 X123.96 Y125.074 E3.84176
G1 X122.522 Y126.759 E3.94491
G1 X121.947 Y127.461 E3.98716
G1 X121.463 Y127.988 E4.02048
G1 X120.924 Y128.458 E4.05378
G1 X120.472 Y128.778 E4.07957
G1 X119.978 Y129.097 E4.10695
G1 X118.51 Y130.016 E4.1876
G1 X117.537 Y130.658 E4.24188
G1 X116.001 Y131.66 E4.32727
G1 X115.865 Y131.746 E4.33476
G1 X115.168 Y132.175 E4.37287
G1 X114.663 Y132.474 E4.4002
G1 X111.582 Y134.372 E4.5687
G1 X111.099 Y134.667 E4.59506
G1 X110.631 Y134.904 E4.61948
G1 X109.986 Y135.197 E4.65247
G1 X108.711 Y135.749 E4.71717
G1 X108.04 Y135.996 E4.75046
G1 X107.345 Y136.167 E4.78379
G1 X106.636 Y136.259 E4.81708
G1 X105.92 Y136.271 E4.85042
G1 X105.208 Y136.204 E4.88372
G1 X104.473 Y136.048 E4.91871
G1 X104.079 Y135.938 E4.93776
G1 X102.083 Y135.355 E5.03458
G1 X99.204 Y134.606 E5.1731
G1 X98.109 Y134.34 E5.22558
G1 X97.424 Y134.132 E5.25891
G1 X96.767 Y133.849 E5.29222
G1 X95.968 Y133.376 E5.33546
G1 X95.302 Y132.913 E5.37322
G1 X92.836 Y131.27 E5.5112
G1 X92.754 Y131.209 E5.51596
G1 X91.873 Y130.628 E5.5651
G1 X91.7 Y130.51 E5.57485
G1 X91.045 Y130.047 E5.6122
G1 X90.528 Y129.656 E5.64239
G1 X90.256 Y129.435 E5.65871
G1 X89.827 Y129.072 E5.68487
G1 X89.588 Y128.859 E5.69978
G1 X88.92 Y128.234 E5.74238
G1 X88.743 Y128.062 E5.75387
G1 X88.103 Y127.415 E5.79625
G1 X87.639 Y126.922 E5.82777
G1 X87.501 Y126.769 E5.83737
G1 X87.007 Y126.204 E5.87231
G1 X86.89 Y126.066 E5.88074
G1 X86.402 Y125.475 E5.91643
G1 X86.287 Y125.332 E5.92497
G1 X85.819 Y124.731 E5.96044
G1 X85.709 Y124.586 E5.96891
G1 X85.356 Y124.105 E5.9967
G1 X85.242 Y123.944 E6.00588
G1 X84.67 Y123.112 E6.0529
G1 X84.564 Y122.953 E6.06179
G1 X84.236 Y122.444 E6.08999
G1 X84.126 Y122.266 E6.09973
G1 X83.724 Y121.595 E6.13616
G1 X83.619 Y121.413 E6.14594
G1 X83.227 Y120.707 E6.18354
G1 X83.107 Y120.48 E6.1955
G1 X82.653 Y119.579 E6.24248
G1 X82.388 Y119.014 E6.27154
G1 X82.28 Y118.765 E6.28417
G1 X81.977 Y118.021 E6.32158
G1 X81.888 Y117.781 E6.3335
G1 X81.659 Y117.125 E6.36585
G1 X81.424 Y116.353 E6.40343
G1 X81.28 Y115.81 E6.42959
G1 X81.107 Y115.019 E6.46729
G1 X80.999 Y114.412 E6.496
G1 X80.906 Y113.706 E6.52916
G1 X80.857 Y113.161 E6.55464
G1 X80.825 Y112.514 E6.5848
G1 X80.82 Y111.992 E6.60911
G1 X80.839 Y111.467 E6.63357
G1 X80.906 Y110.593 E6.67439
G1 X80.955 Y110.15 E6.69514
G1 X81.283 Y107.923 E6.79996
G1 X81.451 Y106.805 E6.8526
G1 X81.78 Y104.145 E6.97741
G1 X81.97 Y102.23 E7.06701
G1 X82.036 Y101.484 E7.10189
G1 X82.058 Y101.273 E7.11177
G1 X82.198 Y100.129 E7.16543
G1 X82.223 Y99.947 E7.17399
G1 X82.358 Y99.064 E7.21558
G1 X82.454 Y98.48 E7.24314
G1 X82.77 Y96.611 E7.3314
G1 X82.98 Y95.405 E7.3884
G1 X83.192 Y94.251 E7.44304
G1 X83.333 Y93.534 E7.47706
G1 X83.516 Y92.672 E7.5181
G1 X83.731 Y91.738 E7.56273
G1 X83.89 Y91.109 E7.59294
G1 X83.933 Y90.947 E7.60074
G1 X84.141 Y90.206 E7.63658
G1 X84.198 Y90.017 E7.64577
G1 X84.435 Y89.263 E7.68257
G1 X84.638 Y88.668 E7.71185
G1 X84.721 Y88.443 E7.72301
G1 X85.099 Y87.475 E7.7714
G1 X85.195 Y87.245 E7.78301
G1 X85.485 Y86.58 E7.81679
G1 X85.833 Y85.859 E7.85407
G1 X86.422 Y84.768 E7.9118
G1 X86.7 Y84.29 E7.93755
G1 X86.848 Y84.052 E7.9506
G1 X87.223 Y83.479 E7.98249
G1 X87.4 Y83.222 E7.99702
G1 X87.756 Y82.732 E8.02522
G1 X87.947 Y82.483 E8.03983
G1 X88.292 Y82.054 E8.06547
G1 X88.633 Y81.654 E8.08994
G1 X89.075 Y81.167 E8.12057
M204 S3000
M205 X10 Y10
G0 F3000 X89.361 Y81.682
M204 S1800
M205 X8 Y8
G1 F2400 X89.958 Y81.067 E8.16048
G1 X90.329 Y80.715 E8.18429
G1 X90.716 Y80.373 E8.20834
G1 X91.248 Y79.935 E8.24043
G1 X91.704 Y79.591 E8.26702
G1 X94.612 Y77.596 E8.43123
G1 X97.136 Y75.733 E8.57731
G1 X97.586 Y75.405 E8.60324
G1 X98.161 Y75.035 E8.63508
G1 X98.775 Y74.735 E8.6669
G1 X99.419 Y74.509 E8.69868
G1 X100.086 Y74.36 E8.7305
G1 X100.774 Y74.289 E8.76271
G1 X101.65 Y74.273 E8.80351
G1 X103.243 Y74.295 E8.87769
G1 X105.736 Y74.303 E8.99378
G1 X106.441 Y74.313 E9.02661
G1 X107.122 Y74.362 E9.0584
G1 X107.793 Y74.491 E9.09022
G1 X108.445 Y74.697 E9.12205
G1 X109.067 Y74.978 E9.15384
G1 X109.696 Y75.361 E9.18813
G1 X111.977 Y76.903 E9.31633
G1 X114.2 Y78.317 E9.43901
G1 X116.077 Y79.421 E9.54041
G1 X117.63 Y80.367 E9.62508
G1 X118.161 Y80.709 E9.65449
G1 X118.383 Y80.861 E9.66702
G1 X118.993 Y81.3 E9.70202
G1 X119.575 Y81.755 E9.73642
G1 X120 Y82.109 E9.76217
G1 X120.361 Y82.431 E9.7847
G1 X120.961 Y83.002 E9.82326
G1 X121.44 Y83.499 E9.85541
G1 X121.894 Y84.021 E9.88762
G1 X122.146 Y84.333 E9.90629
G1 X122.48 Y84.775 E9.93209
G1 X122.883 Y85.357 E9.96505
G1 X123.267 Y85.985 E9.99933
G1 X123.517 Y86.443 E10.02363
G1 X123.727 Y86.871 E10.04583
G1 X124.05 Y87.597 E10.08283
G1 X124.343 Y88.351 E10.12049
G1 X124.527 Y88.891 E10.14706
G1 X125.421 Y91.423 E10.27209
G1 X126.377 Y93.911 E10.3962
G1 X127.35 Y96.215 E10.51266
G1 X127.51 Y96.61 E10.5325
G1 X127.729 Y97.257 E10.56431
G1 X127.861 Y97.738 E10.58754
G1 X127.994 Y98.349 E10.61665
G1 X128.099 Y99.092 E10.65159
G1 X128.255 Y100.815 E10.73215
G1 X128.271 Y100.923 E10.73724
G1 X128.383 Y102.203 E10.79706
G1 X128.454 Y102.851 E10.82742
G1 X128.57 Y104.129 E10.88717
G1 X128.592 Y104.496 E10.90429
G1 X128.616 Y105.367 E10.94487
G1 X128.607 Y105.879 E10.96871
G1 X128.557 Y106.488 E10.99716
G1 X128.458 Y107.147 E11.02819
G1 X128.185 Y108.512 E11.09301
G1 X128.121 Y108.813 E11.10734
G1 X127.644 Y111.4 E11.22983
G1 X127.227 Y114.075 E11.3559
G1 X126.908 Y116.493 E11.46946
G1 X126.756 Y117.505 E11.51712
G1 X126.607 Y118.378 E11.55835
G1 X126.578 Y118.534 E11.56574
G1 X126.472 Y119.067 E11.59105
G1 X126.3 Y119.728 E11.62285
G1 X125.996 Y120.509 E11.66188
G1 X125.416 Y121.851 E11.72995
G1 X125.088 Y122.535 E11.76527
G1 X124.648 Y123.286 E11.8058
G1 X124.233 Y123.857 E11.83867
G1 X123.709 Y124.485 E11.87676
G1 X123.534 Y124.71 E11.89003
G1 X122.106 Y126.384 E11.99249
G1 X121.514 Y127.106 E12.03596
G1 X121.05 Y127.608 E12.06779
G1 X120.532 Y128.053 E12.09959
G1 X119.752 Y128.577 E12.14335
G1 X118.176 Y129.565 E12.22996
G1 X117.231 Y130.189 E12.28269
G1 X115.695 Y131.191 E12.36809
G1 X115.571 Y131.27 E12.37493
G1 X114.883 Y131.693 E12.41254
G1 X114.381 Y131.99 E12.4397
G1 X111.312 Y133.881 E12.60755
G1 X110.827 Y134.177 E12.63401
G1 X110.399 Y134.394 E12.65636
G1 X109.763 Y134.683 E12.68889
G1 X108.488 Y135.235 E12.75358
G1 X107.846 Y135.47 E12.78541
G1 X107.182 Y135.627 E12.81719
G1 X106.503 Y135.706 E12.84902
G1 X105.82 Y135.706 E12.88082
G1 X105.141 Y135.625 E12.91266
G1 X104.622 Y135.508 E12.93743
G1 X104.236 Y135.401 E12.95608
G1 X102.214 Y134.81 E13.05418
G1 X99.356 Y134.067 E13.19168
G1 X98.241 Y133.796 E13.24511
G1 X97.588 Y133.596 E13.27691
G1 X96.962 Y133.321 E13.30875
G1 X96.288 Y132.916 E13.34536
G1 X95.622 Y132.453 E13.38313
G1 X93.147 Y130.804 E13.52162
G1 X93.068 Y130.744 E13.52624
G1 X92.181 Y130.16 E13.57569
G1 X92.023 Y130.053 E13.58457
G1 X91.368 Y129.59 E13.62192
G1 X90.879 Y129.219 E13.6505
G1 X90.618 Y129.007 E13.66616
G1 X90.189 Y128.644 E13.69233
G1 X89.971 Y128.45 E13.70592
G1 X89.303 Y127.825 E13.74851
G1 X89.141 Y127.668 E13.75902
G1 X88.501 Y127.021 E13.80139
G1 X88.049 Y126.54 E13.83213
G1 X87.923 Y126.4 E13.8409
G1 X87.429 Y125.835 E13.87585
G1 X87.322 Y125.709 E13.88354
G1 X86.834 Y125.118 E13.91923
G1 X86.729 Y124.988 E13.92701
G1 X86.261 Y124.387 E13.96248
G1 X86.161 Y124.254 E13.97023
G1 X85.808 Y123.773 E13.99801
G1 X85.704 Y123.627 E14.00636
G1 X85.132 Y122.795 E14.05337
G1 X85.035 Y122.649 E14.06154
G1 X84.707 Y122.14 E14.08973
G1 X84.606 Y121.978 E14.09862
G1 X84.204 Y121.307 E14.13504
G1 X84.108 Y121.141 E14.14397
G1 X83.716 Y120.435 E14.18157
G1 X83.607 Y120.228 E14.19247
G1 X83.153 Y119.327 E14.23945
G1 X82.897 Y118.78 E14.26757
G1 X82.799 Y118.553 E14.27908
G1 X82.498 Y117.814 E14.31624
G1 X82.416 Y117.596 E14.32708
G1 X82.234 Y117.077 E14.35269
G1 X81.961 Y116.195 E14.39569
G1 X81.825 Y115.682 E14.4204
G1 X81.655 Y114.906 E14.45739
G1 X81.553 Y114.331 E14.48458
G1 X81.462 Y113.641 E14.51699
G1 X81.416 Y113.125 E14.54111
G1 X81.385 Y112.496 E14.57044
G1 X81.38 Y111.989 E14.59404
G1 X81.397 Y111.51 E14.61636
G1 X81.464 Y110.636 E14.65718
G1 X81.509 Y110.232 E14.67611
G1 X81.837 Y108.006 E14.78088
G1 X82.007 Y106.878 E14.834
G1 X82.339 Y104.189 E14.96016
G1 X82.523 Y102.332 E15.04705
G1 X82.594 Y101.533 E15.0844
G1 X82.614 Y101.341 E15.09339
G1 X82.754 Y100.197 E15.14706
G1 X82.777 Y100.031 E15.15486
G1 X82.91 Y99.154 E15.19617
G1 X83.006 Y98.573 E15.22359
G1 X83.321 Y96.707 E15.3117
G1 X83.531 Y95.506 E15.36848
G1 X83.742 Y94.359 E15.42278
G1 X83.881 Y93.65 E15.45642
G1 X84.062 Y92.797 E15.49703
G1 X84.274 Y91.875 E15.54108
G1 X84.433 Y91.246 E15.57129
G1 X84.472 Y91.099 E15.57837
G1 X84.68 Y90.358 E15.61421
G1 X84.732 Y90.185 E15.62262
G1 X84.969 Y89.431 E15.65942
G1 X85.167 Y88.852 E15.68792
G1 X85.243 Y88.647 E15.6981
G1 X85.621 Y87.679 E15.74649
G1 X85.708 Y87.469 E15.75707
G1 X85.998 Y86.804 E15.79085
G1 X86.326 Y86.125 E15.82597
G1 X86.915 Y85.034 E15.8837
G1 X87.181 Y84.576 E15.90836
G1 X87.316 Y84.359 E15.92026
G1 X87.691 Y83.786 E15.95215
G1 X87.853 Y83.551 E15.96544
G1 X88.209 Y83.061 E15.99364
G1 X88.383 Y82.834 E16.00696
G1 X88.728 Y82.405 E16.03259
G1 X89.361 Y81.682 E16.07734
M204 S3000
M205 X10 Y10
G0 F3000 X89.777 Y82.056
M204 S1800
M205 X8 Y8
G1 F2400 X90.355 Y81.462 E16.11593
G1 X90.963 Y80.9 E16.15448
G1 X91.392 Y80.538 E16.18062
G1 X91.942 Y80.111 E16.21304
G1 X92.71 Y79.582 E16.25647
G1 X94.925 Y78.061 E16.38158
G1 X97.466 Y76.185 E16.52866
G1 X97.916 Y75.857 E16.55459
G1 X98.463 Y75.508 E16.5848
G1 X99.05 Y75.228 E16.61508
G1 X99.666 Y75.022 E16.64533
G1 X100.303 Y74.894 E16.67558
G1 X101.006 Y74.84 E16.70841
G1 X101.652 Y74.833 E16.7385
G1 X103.241 Y74.855 E16.81249
G1 X105.728 Y74.863 E16.9283
G1 X106.433 Y74.873 E16.96113
G1 X107.081 Y74.922 E16.99139
G1 X107.717 Y75.05 E17.0216
G1 X108.334 Y75.256 E17.05189
G1 X108.92 Y75.535 E17.08211
G1 X109.403 Y75.838 E17.10866
G1 X111.666 Y77.368 E17.23586
G1 X113.913 Y78.797 E17.35985
G1 X115.786 Y79.9 E17.46107
G1 X117.339 Y80.846 E17.54574
G1 X117.856 Y81.179 E17.57438
G1 X118.057 Y81.316 E17.5857
G1 X118.657 Y81.748 E17.62013
G1 X119.227 Y82.194 E17.65383
G1 X119.64 Y82.537 E17.67883
G1 X119.975 Y82.836 E17.69974
G1 X120.575 Y83.407 E17.73831
G1 X121.017 Y83.867 E17.76801
G1 X121.471 Y84.389 E17.80022
G1 X121.7 Y84.671 E17.81714
G1 X122.034 Y85.113 E17.84294
G1 X122.41 Y85.656 E17.87369
G1 X122.785 Y86.271 E17.90723
G1 X123.084 Y86.824 E17.9365
G1 X123.215 Y87.099 E17.95069
G1 X123.538 Y87.825 E17.98769
G1 X123.818 Y88.547 E18.02375
G1 X123.983 Y89.031 E18.04756
G1 X124.901 Y91.633 E18.17604
G1 X125.856 Y94.117 E18.29996
G1 X126.831 Y96.426 E18.41667
G1 X126.991 Y96.821 E18.43651
G1 X127.189 Y97.406 E18.46527
G1 X127.321 Y97.887 E18.48849
G1 X127.441 Y98.439 E18.5148
G1 X127.542 Y99.142 E18.54787
G1 X127.701 Y100.904 E18.63025
G1 X127.713 Y100.972 E18.63346
G1 X127.827 Y102.27 E18.69414
G1 X127.896 Y102.902 E18.72374
G1 X128.012 Y104.18 E18.78349
G1 X128.032 Y104.512 E18.79898
G1 X128.056 Y105.383 E18.83955
G1 X128.035 Y106.061 E18.87114
G1 X127.969 Y106.673 E18.8998
G1 X127.909 Y107.037 E18.91698
G1 X127.637 Y108.396 E18.98152
G1 X127.57 Y108.712 E18.99656
G1 X127.09 Y111.315 E19.11981
G1 X126.678 Y113.959 E19.24441
G1 X126.34 Y116.511 E19.36428
G1 X126.204 Y117.41 E19.40662
G1 X126.055 Y118.283 E19.44785
G1 X126.029 Y118.425 E19.45458
G1 X125.923 Y118.958 E19.47988
G1 X125.757 Y119.586 E19.51013
G1 X125.479 Y120.295 E19.54559
G1 X124.902 Y121.628 E19.61322
G1 X124.585 Y122.289 E19.64736
G1 X124.187 Y122.968 E19.68401
G1 X123.798 Y123.504 E19.71485
G1 X123.563 Y123.791 E19.73212
G1 X123.214 Y124.203 E19.75726
G1 X123.108 Y124.347 E19.76559
G1 X121.671 Y126.031 E19.86867
G1 X121.081 Y126.751 E19.91201
G1 X120.639 Y127.227 E19.94226
G1 X120.142 Y127.645 E19.9725
G1 X119.448 Y128.107 E20.01132
G1 X117.9 Y129.077 E20.09638
G1 X116.925 Y129.72 E20.15077
G1 X115.389 Y130.722 E20.23616
G1 X114.684 Y131.159 E20.27479
G1 X114.074 Y131.521 E20.30782
G1 X111.045 Y133.387 E20.47347
G1 X110.555 Y133.688 E20.50025
G1 X110.166 Y133.885 E20.52056
G1 X109.541 Y134.169 E20.55252
G1 X108.266 Y134.721 E20.61722
G1 X107.655 Y134.942 E20.64747
G1 X107.021 Y135.087 E20.67776
G1 X106.375 Y135.152 E20.70799
G1 X105.726 Y135.137 E20.73822
G1 X104.77 Y134.968 E20.78342
G1 X104.393 Y134.863 E20.80164
G1 X102.376 Y134.274 E20.89949
G1 X99.449 Y133.513 E21.04031
G1 X98.373 Y133.251 E21.09188
G1 X97.753 Y133.059 E21.1221
G1 X97.16 Y132.793 E21.15236
G1 X96.607 Y132.456 E21.18252
G1 X95.941 Y131.993 E21.22029
G1 X93.457 Y130.338 E21.35928
G1 X93.387 Y130.284 E21.36339
G1 X92.489 Y129.693 E21.41345
G1 X92.346 Y129.596 E21.4215
G1 X91.691 Y129.133 E21.45885
G1 X91.229 Y128.783 E21.48583
G1 X90.979 Y128.58 E21.50083
G1 X90.55 Y128.217 E21.527
G1 X90.354 Y128.042 E21.53923
G1 X89.686 Y127.417 E21.58183
G1 X89.539 Y127.274 E21.59138
G1 X88.899 Y126.627 E21.63376
G1 X88.458 Y126.158 E21.66373
G1 X88.344 Y126.031 E21.67168
G1 X87.85 Y125.466 E21.70663
