;FLAVOR:Marlin
;TIME:9637
;Filament used: 7.7974m
;Layer height: 0.2
;MINX:64.054
;MINY:27.254
;MINZ:0.2
;MAXX:145.94
;MAXY:182.492
;MAXZ:9.2
;Generated with Cura_SteamEngine 4.11.0
M140 S60
M105
M190 S60
M104 S200
M105
M109 S200
M82 ;absolute extrusion mode
G21 ;metric values
G90 ;absolute positioning
M82 ;set extruder to absolute mode
M107 ;start with the fan off
G28 X0 Y0 ;move X/Y to min endstops
G28 Z0 ;move Z to min endstops
G1 Z15.0 F100 ;move the platform down 15mm
G92 E0 ;zero the extruded length
G1 F200 E3 ;extrude 3mm of feed stock
G92 E0 ;zero the extruded length again
G1 F100
G0 Y20 F100
M117 Printing...
G5
G92 E0
G92 E0
G1 F2400 E-6
;LAYER_COUNT:47
;LAYER:0
M107
M204 S3000
M205 X10 Y10
G1 F600 Z0.275
G0 F3000 X65.986 Y35.785 Z0.275
M204 S1800
M205 X8 Y8
;TYPE:SKIRT
G1 F600 Z0.2
G1 F2400 E0
G1 X66.554 Y34.765 E0.05436
G1 X66.992 Y33.961 E0.097
G1 X67.368 Y33.353 E0.13028
G1 X67.81 Y32.791 E0.16358
G1 X68.092 Y32.491 E0.18275
G1 X68.588 Y31.996 E0.21538
G1 X69.027 Y31.584 E0.24341
G1 X69.579 Y31.13 E0.27669
G1 X70.179 Y30.74 E0.31001
G1 X70.998 Y30.344 E0.35237
G1 X71.48 Y30.152 E0.37653
G1 X74.188 Y29.031 E0.51301
G1 X74.658 Y28.837 E0.53668
G1 X74.933 Y28.734 E0.55036
G1 X75.845 Y28.467 E0.5946
G1 X76.986 Y28.224 E0.64893
G1 X77.204 Y28.182 E0.65926
G1 X78.114 Y28.021 E0.70229
G1 X78.741 Y27.935 E0.73176
G1 X79.429 Y27.889 E0.76387
G1 X80.25 Y27.878 E0.8021
G1 X89.503 Y27.878 E1.23296
G1 X93.025 Y27.888 E1.39696
G1 X95.762 Y27.856 E1.52442
G1 X98.393 Y27.752 E1.64702
G1 X100.489 Y27.609 E1.74485
G1 X100.846 Y27.593 E1.76149
G1 X102.122 Y27.567 E1.82092
G1 X104.123 Y27.566 E1.91409
G1 X107.714 Y27.576 E2.0813
G1 X110.452 Y27.544 E2.20881
G1 X113.107 Y27.439 E2.33253
G1 X114.46 Y27.356 E2.39565
G1 X115.563 Y27.28 E2.44713
G1 X115.999 Y27.263 E2.46745
G1 X116.673 Y27.254 E2.49884
G1 X118.735 Y27.254 E2.59485
G1 X129.858 Y27.282 E3.11279
G1 X130.52 Y27.293 E3.14362
G1 X131.064 Y27.325 E3.16899
G1 X131.779 Y27.41 E3.20252
G1 X132.202 Y27.469 E3.22241
G1 X132.915 Y27.578 E3.25599
G1 X133.489 Y27.687 E3.2832
G1 X134.06 Y27.821 E3.31051
G1 X134.576 Y27.966 E3.33547
G1 X135.333 Y28.227 E3.37275
G1 X135.993 Y28.503 E3.40606
G1 X136.513 Y28.787 E3.43365
G1 X137.178 Y29.191 E3.46988
G1 X137.317 Y29.287 E3.47775
G1 X139.031 Y30.359 E3.57189
G1 X139.476 Y30.664 E3.59701
G1 X139.652 Y30.796 E3.60725
G1 X140.088 Y31.154 E3.63352
G1 X140.437 Y31.47 E3.65544
G1 X141.014 Y32.014 E3.69237
G1 X141.227 Y32.224 E3.7063
G1 X141.626 Y32.637 E3.73304
G1 X142.093 Y33.179 E3.76635
G1 X142.594 Y33.934 E3.80854
G1 X143.237 Y35.071 E3.86937
G1 X143.794 Y36.087 E3.92332
G1 X144.126 Y36.717 E3.95648
G1 X144.427 Y37.376 E3.99021
G1 X144.69 Y38.1 E4.02608
G1 X144.764 Y38.322 E4.03698
G1 X145.184 Y39.665 E4.1025
G1 X145.32 Y40.128 E4.12497
G1 X145.49 Y40.739 E4.1545
G1 X145.643 Y41.438 E4.18782
G1 X145.723 Y42.318 E4.22897
G1 X145.747 Y43.439 E4.28118
G1 X145.751 Y73.597 E5.68546
G1 X145.751 Y161.531 E9.78003
G1 X145.789 Y164.197 E9.90419
G1 X145.899 Y166.812 E10.02606
G1 X145.94 Y167.538 E10.05992
G1 X145.912 Y168.598 E10.10929
G1 X145.829 Y169.226 E10.13879
G1 X145.725 Y169.862 E10.1688
G1 X145.51 Y170.75 E10.21134
G1 X145.31 Y171.373 E10.24181
G1 X145.2 Y171.694 E10.25761
G1 X144.983 Y172.243 E10.2851
G1 X144.618 Y173.055 E10.32655
G1 X144.197 Y173.876 E10.36952
G1 X143.913 Y174.345 E10.39505
G1 X143.529 Y174.931 E10.42767
G1 X143.197 Y175.423 E10.45531
G1 X142.793 Y176.005 E10.4883
G1 X142.353 Y176.568 E10.52157
G1 X142.059 Y176.883 E10.54163
G1 X141.09 Y177.849 E10.60534
G1 X140.653 Y178.267 E10.6335
G1 X140.081 Y178.793 E10.66969
G1 X139.362 Y179.365 E10.71247
G1 X138.593 Y179.89 E10.75583
G1 X138.4 Y180.016 E10.76656
G1 X137.79 Y180.401 E10.80015
G1 X137.067 Y180.795 E10.83849
G1 X136.584 Y181.019 E10.86328
G1 X135.985 Y181.279 E10.89368
G1 X135.462 Y181.476 E10.91971
G1 X134.853 Y181.673 E10.94951
G1 X134.067 Y181.894 E10.98753
G1 X133.863 Y181.941 E10.99728
G1 X133.158 Y182.062 E11.03059
G1 X132.522 Y182.103 E11.06026
G1 X131.687 Y182.115 E11.09915
G1 X130.744 Y182.114 E11.14306
G1 X129.824 Y182.124 E11.1859
G1 X123.922 Y182.128 E11.46072
G1 X121.255 Y182.168 E11.58492
G1 X118.603 Y182.281 E11.70852
G1 X116.625 Y182.421 E11.80086
G1 X116.321 Y182.435 E11.81503
G1 X114.793 Y182.469 E11.8862
G1 X100.488 Y182.492 E12.5523
G1 X80.02 Y182.463 E13.50537
G1 X79.318 Y182.449 E13.53807
G1 X79.046 Y182.436 E13.55075
G1 X78.126 Y182.324 E13.5939
G1 X77.746 Y182.249 E13.61194
G1 X76.877 Y182.061 E13.65334
G1 X75.958 Y181.864 E13.6971
G1 X75.213 Y181.695 E13.73268
G1 X74.526 Y181.498 E13.76595
G1 X73.877 Y181.232 E13.79861
G1 X73.174 Y180.876 E13.83531
G1 X72.226 Y180.374 E13.88526
G1 X71.536 Y179.995 E13.92191
G1 X70.967 Y179.65 E13.9529
G1 X70.401 Y179.248 E13.98523
G1 X69.758 Y178.719 E14.024
G1 X69.589 Y178.564 E14.03467
G1 X68.985 Y177.993 E14.07338
G1 X68.776 Y177.786 E14.08708
G1 X68.364 Y177.359 E14.1147
G1 X67.897 Y176.817 E14.14802
G1 X67.398 Y176.063 E14.19012
G1 X66.678 Y174.787 E14.25834
G1 X66.078 Y173.698 E14.31624
G1 X65.858 Y173.277 E14.33836
G1 X65.579 Y172.655 E14.3701
G1 X65.302 Y171.89 E14.40798
G1 X65.232 Y171.683 E14.41816
G1 X64.8 Y170.305 E14.4854
G1 X64.687 Y169.918 E14.50418
G1 X64.499 Y169.243 E14.5368
G1 X64.331 Y168.447 E14.57469
G1 X64.323 Y168.392 E14.57727
G1 X64.259 Y167.68 E14.61056
G1 X64.246 Y167.08 E14.63851
G1 X64.243 Y105.169 E17.52134
G1 X64.243 Y48.467 E20.16162
G1 X64.206 Y45.848 E20.28359
G1 X64.098 Y43.252 E20.40457
G1 X64.054 Y42.446 E20.44216
G1 X64.08 Y41.434 E20.4893
G1 X64.173 Y40.732 E20.52227
G1 X64.27 Y40.144 E20.55002
G1 X64.434 Y39.426 E20.58432
G1 X64.601 Y38.88 E20.6109
G1 X64.827 Y38.223 E20.64325
G1 X65.032 Y37.705 E20.6692
G1 X65.261 Y37.193 E20.69531
G1 X65.471 Y36.76 E20.71772
G1 X65.986 Y35.785 E20.76906
M204 S3000
M205 X10 Y10
G0 F3000 X66.476 Y36.058
M204 S1800
M205 X8 Y8
G1 F2400 X67.044 Y35.038 E20.82343
G1 X67.484 Y34.229 E20.86631
G1 X67.845 Y33.649 E20.89812
G1 X68.488 Y32.887 E20.94455
G1 X68.984 Y32.392 E20.97718
G1 X69.407 Y31.996 E21.00416
G1 X69.935 Y31.563 E21.03595
G1 X70.511 Y31.195 E21.06778
G1 X71.205 Y30.864 E21.10358
G1 X71.68 Y30.675 E21.12739
G1 X74.429 Y29.537 E21.26593
G1 X75.13 Y29.258 E21.30106
G1 X75.962 Y29.015 E21.34142
G1 X77.103 Y28.772 E21.39574
G1 X77.302 Y28.733 E21.40518
G1 X78.212 Y28.572 E21.44822
G1 X78.809 Y28.491 E21.47627
G1 X79.436 Y28.449 E21.50553
G1 X80.25 Y28.438 E21.54344
G1 X89.501 Y28.438 E21.9742
G1 X93.03 Y28.448 E22.13853
G1 X95.79 Y28.416 E22.26705
G1 X98.418 Y28.311 E22.38952
G1 X100.518 Y28.168 E22.48753
G1 X100.857 Y28.153 E22.50333
G1 X102.252 Y28.126 E22.5683
G1 X104.122 Y28.126 E22.65538
G1 X107.72 Y28.136 E22.82292
G1 X110.48 Y28.104 E22.95144
G1 X113.12 Y27.999 E23.07447
G1 X114.53 Y27.913 E23.14025
G1 X115.602 Y27.839 E23.19028
G1 X116.006 Y27.823 E23.20911
G1 X116.673 Y27.814 E23.24017
G1 X118.733 Y27.814 E23.33609
G1 X129.849 Y27.842 E23.8537
G1 X130.511 Y27.853 E23.88453
G1 X131.193 Y27.901 E23.91637
G1 X131.77 Y27.973 E23.94344
G1 X132.118 Y28.022 E23.95981
G1 X132.831 Y28.131 E23.99339
G1 X133.377 Y28.236 E24.01928
G1 X133.928 Y28.365 E24.04563
G1 X134.415 Y28.502 E24.06919
G1 X135.146 Y28.754 E24.10519
G1 X135.775 Y29.02 E24.13699
G1 X136.222 Y29.266 E24.16075
G1 X136.887 Y29.67 E24.19698
G1 X136.998 Y29.747 E24.20327
G1 X138.734 Y30.833 E24.29862
G1 X139.316 Y31.244 E24.3318
G1 X139.714 Y31.571 E24.35579
G1 X140.053 Y31.878 E24.37708
G1 X140.63 Y32.422 E24.41401
G1 X140.824 Y32.613 E24.42669
G1 X141.223 Y33.026 E24.45343
G1 X141.668 Y33.545 E24.48526
G1 X142.107 Y34.21 E24.52236
G1 X142.746 Y35.341 E24.58285
G1 X143.298 Y36.348 E24.63632
G1 X143.63 Y36.978 E24.66948
G1 X143.905 Y37.579 E24.70026
G1 X144.162 Y38.287 E24.73533
G1 X144.23 Y38.489 E24.74526
G1 X144.647 Y39.824 E24.81038
G1 X144.78 Y40.279 E24.83245
G1 X144.95 Y40.89 E24.86199
G1 X145.095 Y41.557 E24.89377
G1 X145.163 Y42.33 E24.9299
G1 X145.187 Y43.451 E24.98211
G1 X145.191 Y73.597 E26.38584
G1 X145.191 Y161.539 E30.48079
G1 X145.229 Y164.193 E30.60438
G1 X145.34 Y166.844 E30.72793
G1 X145.381 Y167.57 E30.76179
G1 X145.355 Y168.537 E30.80683
G1 X145.274 Y169.148 E30.83553
G1 X145.172 Y169.77 E30.86488
G1 X144.977 Y170.58 E30.90368
G1 X144.781 Y171.191 E30.93356
G1 X144.671 Y171.512 E30.94936
G1 X144.473 Y172.013 E30.97444
G1 X144.108 Y172.825 E31.01589
G1 X143.714 Y173.592 E31.05605
G1 X143.444 Y174.038 E31.08032
G1 X143.065 Y174.618 E31.11258
G1 X142.737 Y175.103 E31.13985
G1 X142.333 Y175.685 E31.17284
G1 X141.912 Y176.223 E31.20465
G1 X141.663 Y176.487 E31.22155
G1 X140.703 Y177.444 E31.28466
G1 X140.179 Y177.944 E31.31839
G1 X139.703 Y178.381 E31.34848
G1 X139.046 Y178.902 E31.38752
G1 X138.277 Y179.427 E31.43088
G1 X138.101 Y179.543 E31.44069
G1 X137.491 Y179.928 E31.47428
G1 X136.831 Y180.287 E31.50927
G1 X136.348 Y180.511 E31.53406
G1 X135.764 Y180.764 E31.5637
G1 X135.287 Y180.944 E31.58743
G1 X134.694 Y181.136 E31.61646
G1 X133.941 Y181.348 E31.65288
G1 X133.737 Y181.395 E31.66263
G1 X133.064 Y181.509 E31.69442
G1 X132.514 Y181.543 E31.72008
G1 X131.687 Y181.555 E31.75859
G1 X130.737 Y181.554 E31.80282
G1 X129.824 Y181.564 E31.84534
G1 X123.913 Y181.568 E32.12058
G1 X121.259 Y181.607 E32.24418
G1 X118.541 Y181.724 E32.37085
G1 X116.586 Y181.862 E32.46211
G1 X116.308 Y181.875 E32.47507
G1 X114.792 Y181.909 E32.54568
G1 X100.489 Y181.932 E33.21169
G1 X80.029 Y181.903 E34.16439
G1 X79.345 Y181.889 E34.19625
G1 X79.073 Y181.876 E34.20893
G1 X78.233 Y181.775 E34.24833
G1 X77.865 Y181.702 E34.2658
G1 X76.082 Y181.318 E34.35072
G1 X75.337 Y181.149 E34.3863
G1 X74.681 Y180.959 E34.4181
G1 X74.118 Y180.727 E34.44645
G1 X73.431 Y180.379 E34.48231
G1 X72.413 Y179.839 E34.53597
G1 X71.805 Y179.505 E34.56827
G1 X71.266 Y179.177 E34.59765
G1 X70.75 Y178.81 E34.62714
G1 X70.135 Y178.304 E34.66422
G1 X69.974 Y178.157 E34.67437
G1 X69.37 Y177.586 E34.71307
G1 X69.179 Y177.397 E34.72559
G1 X68.767 Y176.97 E34.75322
G1 X68.323 Y176.451 E34.78502
G1 X67.885 Y175.788 E34.82202
G1 X67.168 Y174.517 E34.88997
G1 X66.568 Y173.428 E34.94787
G1 X66.356 Y173.021 E34.96923
G1 X66.102 Y172.454 E34.99816
G1 X65.83 Y171.704 E35.03531
G1 X65.767 Y171.515 E35.04459
G1 X65.337 Y170.146 E35.11141
G1 X65.226 Y169.768 E35.12975
G1 X65.038 Y169.093 E35.16238
G1 X64.885 Y168.367 E35.19693
G1 X64.877 Y168.312 E35.19952
G1 X64.819 Y167.662 E35.2299
G1 X64.806 Y167.074 E35.25729
G1 X64.803 Y105.169 E38.13984
G1 X64.803 Y48.467 E40.78013
G1 X64.765 Y45.817 E40.90354
G1 X64.658 Y43.229 E41.02415
G1 X64.614 Y42.416 E41.06206
G1 X64.637 Y41.492 E41.1051
G1 X64.727 Y40.812 E41.13704
G1 X64.822 Y40.237 E41.16417
G1 X64.972 Y39.582 E41.19546
G1 X65.135 Y39.05 E41.22137
G1 X65.18 Y38.914 E41.22804
G1 X65.356 Y38.406 E41.25308
G1 X65.543 Y37.934 E41.27672
G1 X65.772 Y37.422 E41.30283
G1 X65.967 Y37.021 E41.3236
G1 X66.476 Y36.058 E41.37432
M204 S3000
M205 X10 Y10
G0 F3000 X66.906 Y36.438
M204 S1800
M205 X8 Y8
G1 F2400 X67.511 Y35.35 E41.43228
G1 X67.975 Y34.497 E41.4775
G1 X68.321 Y33.946 E41.5078
G1 X68.883 Y33.284 E41.54823
G1 X69.379 Y32.789 E41.58086
G1 X69.786 Y32.408 E41.60682
G1 X70.29 Y31.998 E41.63707
G1 X70.84 Y31.653 E41.6673
G1 X71.412 Y31.384 E41.69674
G1 X71.907 Y31.187 E41.72155
G1 X74.618 Y30.065 E41.85816
G1 X75.326 Y29.782 E41.89367
G1 X76.078 Y29.563 E41.93014
G1 X77.219 Y29.32 E41.98446
G1 X77.399 Y29.285 E41.993
G1 X78.309 Y29.124 E42.03603
G1 X78.877 Y29.047 E42.06272
G1 X79.444 Y29.008 E42.08919
G1 X80.178 Y28.998 E42.12337
G1 X89.5 Y28.998 E42.55744
G1 X93.035 Y29.008 E42.72204
G1 X95.783 Y28.976 E42.85001
G1 X98.443 Y28.87 E42.97397
G1 X100.547 Y28.727 E43.07217
G1 X100.868 Y28.713 E43.08713
G1 X102.252 Y28.686 E43.15158
G1 X104.12 Y28.686 E43.23857
G1 X107.724 Y28.696 E43.40638
G1 X110.473 Y28.664 E43.5344
G1 X113.176 Y28.557 E43.66036
G1 X114.536 Y28.473 E43.72381
G1 X115.64 Y28.397 E43.77534
G1 X116.014 Y28.382 E43.79277
G1 X116.601 Y28.374 E43.8201
G1 X118.732 Y28.374 E43.91933
G1 X129.84 Y28.402 E44.43657
G1 X130.502 Y28.413 E44.4674
G1 X131.137 Y28.458 E44.49704
G1 X131.693 Y28.528 E44.52313
G1 X132.033 Y28.576 E44.53912
G1 X132.746 Y28.685 E44.57271
G1 X133.264 Y28.784 E44.59726
G1 X133.797 Y28.91 E44.62277
G1 X134.505 Y29.121 E44.65717
G1 X134.958 Y29.282 E44.67955
G1 X135.556 Y29.537 E44.70982
G1 X135.931 Y29.744 E44.72977
G1 X136.596 Y30.148 E44.766
G1 X136.711 Y30.228 E44.77252
G1 X138.437 Y31.308 E44.86733
G1 X138.98 Y31.692 E44.8983
G1 X139.575 Y32.198 E44.93467
G1 X140.246 Y32.829 E44.97756
G1 X140.421 Y33.002 E44.98902
G1 X140.82 Y33.415 E45.01576
G1 X141.242 Y33.909 E45.04601
G1 X141.619 Y34.485 E45.07806
G1 X142.255 Y35.611 E45.13828
G1 X142.803 Y36.609 E45.1913
G1 X143.135 Y37.239 E45.22446
G1 X143.383 Y37.783 E45.2523
G1 X143.634 Y38.474 E45.28653
G1 X143.695 Y38.657 E45.29551
G1 X144.11 Y39.982 E45.36016
G1 X144.241 Y40.429 E45.38185
G1 X144.411 Y41.04 E45.41139
G1 X144.546 Y41.675 E45.44161
G1 X144.603 Y42.342 E45.47279
G1 X144.628 Y43.575 E45.53021
G1 X144.631 Y73.597 E46.92816
G1 X144.631 Y161.547 E51.02348
G1 X144.669 Y164.224 E51.14815
G1 X144.781 Y166.875 E51.2717
G1 X144.822 Y167.601 E51.30556
G1 X144.798 Y168.476 E51.34632
G1 X144.72 Y169.069 E51.37417
G1 X144.62 Y169.678 E51.4029
G1 X144.443 Y170.41 E51.43797
G1 X144.251 Y171.01 E51.46731
G1 X143.962 Y171.784 E51.50578
G1 X143.597 Y172.596 E51.54723
G1 X143.232 Y173.308 E51.58449
G1 X142.976 Y173.732 E51.60755
G1 X142.6 Y174.305 E51.63946
G1 X142.277 Y174.784 E51.66636
G1 X141.873 Y175.366 E51.69935
G1 X141.267 Y176.091 E51.74335
G1 X140.316 Y177.04 E51.80591
G1 X139.879 Y177.458 E51.83407
G1 X139.324 Y177.968 E51.86917
G1 X138.73 Y178.44 E51.9045
G1 X137.961 Y178.965 E51.94785
G1 X137.802 Y179.069 E51.9567
G1 X137.192 Y179.454 E51.99029
G1 X136.595 Y179.779 E52.02194
G1 X136.112 Y180.003 E52.04673
G1 X135.544 Y180.249 E52.07555
G1 X134.684 Y180.553 E52.11803
G1 X134.13 Y180.719 E52.14496
G1 X133.611 Y180.849 E52.16987
G1 X132.971 Y180.956 E52.20009
G1 X132.505 Y180.983 E52.22182
G1 X131.688 Y180.995 E52.25987
G1 X130.732 Y180.994 E52.30438
G1 X129.824 Y181.004 E52.34667
G1 X123.904 Y181.008 E52.62233
G1 X121.227 Y181.048 E52.74699
G1 X118.548 Y181.162 E52.87185
G1 X116.546 Y181.304 E52.96531
G1 X116.295 Y181.316 E52.97701
G1 X114.904 Y181.348 E53.0418
G1 X100.49 Y181.372 E53.71297
G1 X80.038 Y181.343 E54.6653
G1 X79.372 Y181.33 E54.69632
G1 X79.1 Y181.317 E54.709
G1 X78.34 Y181.225 E54.74465
G1 X77.983 Y181.154 E54.7616
G1 X77.11 Y180.965 E54.80319
G1 X76.206 Y180.772 E54.84623
G1 X75.461 Y180.603 E54.8818
G1 X74.837 Y180.421 E54.91207
G1 X74.359 Y180.221 E54.9362
G1 X73.688 Y179.881 E54.97123
G1 X72.683 Y179.348 E55.0242
G1 X72.075 Y179.014 E55.0565
G1 X71.565 Y178.703 E55.08431
G1 X71.099 Y178.372 E55.11093
G1 X70.511 Y177.89 E55.14633
G1 X70.359 Y177.75 E55.15595
G1 X69.755 Y177.179 E55.19466
G1 X69.582 Y177.008 E55.20598
G1 X69.17 Y176.581 E55.23361
G1 X68.749 Y176.087 E55.26384
G1 X68.373 Y175.512 E55.29583
G1 X67.658 Y174.247 E55.36349
G1 X67.058 Y173.158 E55.42138
G1 X66.854 Y172.765 E55.442
G1 X66.624 Y172.252 E55.46818
G1 X66.358 Y171.518 E55.50453
G1 X66.301 Y171.347 E55.51293
G1 X65.874 Y169.987 E55.5793
G1 X65.766 Y169.618 E55.59721
G1 X65.578 Y168.943 E55.62983
G1 X65.439 Y168.286 E55.6611
G1 X65.431 Y168.231 E55.66369
G1 X65.379 Y167.643 E55.69118
G1 X65.366 Y167.069 E55.71791
G1 X65.363 Y105.169 E58.60023
G1 X65.363 Y48.467 E61.24052
G1 X65.325 Y45.786 E61.36537
G1 X65.221 Y43.272 E61.48253
G1 X65.173 Y42.385 E61.52389
G1 X65.194 Y41.55 E61.56279
G1 X65.281 Y40.892 E61.59369
G1 X65.374 Y40.33 E61.62022
G1 X65.51 Y39.738 E61.6485
G1 X65.668 Y39.22 E61.67372
G1 X65.885 Y38.59 E61.70475
G1 X66.054 Y38.162 E61.72617
G1 X66.283 Y37.65 E61.75229
G1 X66.462 Y37.281 E61.77139
G1 X66.906 Y36.438 E61.81575
M204 S3000
M205 X10 Y10
G0 F3000 X71.567 Y39.32
M204 S1800
M205 X8 Y8
;TYPE:SUPPORT-INTERFACE
G1 F1500 X72.832 Y37.444 E61.92111
G1 X72.822 Y37.07 E61.93853
G1 X73.091 Y36.812 E61.95589
G1 X73.382 Y36.536 E61.97456
G1 X73.57 Y36.666 E61.98521
G1 X74.095 Y36.663 E62.00965
G1 X75.001 Y36.014 E62.06155
G1 X76.817 Y35.073 E62.15679
G1 X77.318 Y34.878 E62.18182
