;FLAVOR:Marlin
;TIME:542
;Filament used: 0.454852m
;Layer height: 0.2
;MINX:85.468
;MINY:70.408
;MINZ:0.2
;MAXX:124.531
;MAXY:138.853
;MAXZ:3.6
;Generated with Cura_SteamEngine 4.11.0
M140 S60
M105
M190 S60
M104 S200
M105
M109 S200
M82 ;absolute extrusion mode
G21 ;metric values
G90 ;absolute positioning
M82 ;set extruder to absolute mode
M107 ;start with the fan off
G28 X0 Y0 ;move X/Y to min endstops
G28 Z0 ;move Z to min endstops
G1 Z15.0 F100 ;move the platform down 15mm
G92 E0 ;zero the extruded length
G1 F200 E3 ;extrude 3mm of feed stock
G92 E0 ;zero the extruded length again
G1 F100
G0 Y20 F100
M117 Printing...
G5
G92 E0
G92 E0
G1 F2400 E-6
;LAYER_COUNT:18
;LAYER:0
M107
M204 S3000
M205 X10 Y10
G1 F600 Z0.275
G0 F3000 X87.82 Y74.535 Z0.275
M204 S1800
M205 X8 Y8
;TYPE:SKIRT
G1 F600 Z0.2
G1 F2400 E0
G1 X88.307 Y74.011 E0.03331
G1 X88.756 Y73.616 E0.06116
G1 X89.324 Y73.163 E0.09499
G1 X89.741 Y72.85 E0.11927
G1 X90.339 Y72.458 E0.15256
G1 X90.977 Y72.135 E0.18586
G1 X91.517 Y71.927 E0.2128
G1 X92.328 Y71.656 E0.25262
G1 X92.542 Y71.589 E0.26306
G1 X93.046 Y71.44 E0.28753
G1 X93.742 Y71.275 E0.32084
G1 X94.679 Y71.18 E0.3647
G1 X95.221 Y71.168 E0.38994
G1 X100.2 Y71.202 E0.62179
G1 X102.903 Y71.182 E0.74765
G1 X105.542 Y71.088 E0.87061
G1 X108.158 Y70.921 E0.99267
G1 X111.658 Y70.584 E1.1564
G1 X112.749 Y70.459 E1.20754
G1 X113.297 Y70.42 E1.23312
G1 X114.267 Y70.408 E1.27829
G1 X115.069 Y70.419 E1.31564
G1 X115.755 Y70.465 E1.34765
G1 X116.311 Y70.537 E1.37376
G1 X116.714 Y70.6 E1.39275
G1 X117.618 Y70.809 E1.43596
G1 X118.398 Y71.071 E1.47427
G1 X119.059 Y71.346 E1.50761
G1 X119.684 Y71.694 E1.54092
G1 X120.267 Y72.108 E1.57421
G1 X120.799 Y72.585 E1.60748
G1 X121.276 Y73.119 E1.64082
G1 X121.518 Y73.443 E1.65965
G1 X121.95 Y74.063 E1.69484
G1 X122.879 Y75.432 E1.77188
G1 X123.247 Y76.046 E1.80521
G1 X123.462 Y76.498 E1.82852
G1 X123.797 Y77.277 E1.868
G1 X124.019 Y77.83 E1.89575
G1 X124.244 Y78.509 E1.92906
G1 X124.392 Y79.209 E1.96237
G1 X124.463 Y79.976 E1.99824
G1 X124.477 Y80.594 E2.02703
G1 X124.505 Y104.477 E3.13912
G1 X124.504 Y105.242 E3.17474
G1 X124.531 Y128.955 E4.27892
G1 X124.523 Y129.611 E4.30947
G1 X124.497 Y130.11 E4.33273
G1 X124.395 Y130.818 E4.36604
G1 X124.159 Y131.735 E4.41013
G1 X123.97 Y132.367 E4.44085
G1 X123.726 Y133.039 E4.47414
G1 X123.408 Y133.68 E4.50746
G1 X123.011 Y134.295 E4.54154
G1 X122.466 Y135.012 E4.58348
G1 X121.95 Y135.655 E4.62187
G1 X121.47 Y136.186 E4.6552
G1 X120.935 Y136.661 E4.68851
G1 X120.32 Y137.091 E4.72346
G1 X119.779 Y137.424 E4.75304
G1 X119.627 Y137.515 E4.76129
G1 X119.146 Y137.793 E4.78715
G1 X118.795 Y137.981 E4.8057
G1 X118.139 Y138.265 E4.83898
G1 X117.433 Y138.479 E4.87333
G1 X116.927 Y138.596 E4.89752
G1 X116.309 Y138.718 E4.92685
G1 X115.6 Y138.816 E4.96018
G1 X115.197 Y138.837 E4.97897
G1 X114.41 Y138.852 E5.01562
G1 X114.229 Y138.853 E5.02405
G1 X104.188 Y138.761 E5.49162
G1 X95.485 Y138.729 E5.89687
G1 X94.749 Y138.717 E5.93114
G1 X94.238 Y138.69 E5.95497
G1 X93.611 Y138.621 E5.98434
G1 X92.678 Y138.439 E6.02861
G1 X92.302 Y138.336 E6.04676
G1 X91.624 Y138.108 E6.08007
G1 X90.941 Y137.788 E6.11519
G1 X90.554 Y137.578 E6.13569
G1 X89.938 Y137.198 E6.16939
G1 X89.527 Y136.899 E6.19306
G1 X88.927 Y136.416 E6.22893
G1 X88.414 Y135.968 E6.26064
G1 X88.137 Y135.719 E6.27798
G1 X87.633 Y135.212 E6.31127
G1 X87.252 Y134.74 E6.33952
G1 X86.86 Y134.142 E6.37281
G1 X86.523 Y133.473 E6.40769
G1 X86.197 Y132.718 E6.44599
G1 X85.971 Y132.148 E6.47454
G1 X85.748 Y131.469 E6.50782
G1 X85.603 Y130.768 E6.54115
G1 X85.535 Y130.026 E6.57584
G1 X85.521 Y129.309 E6.60924
G1 X85.493 Y105.525 E7.71672
G1 X85.494 Y104.76 E7.75234
G1 X85.468 Y81.015 E8.85801
G1 X85.476 Y80.397 E8.88679
G1 X85.525 Y79.684 E8.92007
G1 X85.653 Y78.98 E8.95339
G1 X85.88 Y78.24 E8.98943
G1 X86.167 Y77.472 E9.0276
G1 X86.283 Y77.183 E9.04211
G1 X86.511 Y76.653 E9.06897
G1 X86.939 Y75.828 E9.11225
G1 X87.214 Y75.386 E9.13649
G1 X87.395 Y75.11 E9.15186
G1 X87.82 Y74.535 E9.18515
M204 S3000
M205 X10 Y10
G0 F3000 X88.271 Y74.869
M204 S1800
M205 X8 Y8
G1 F2400 X88.74 Y74.372 E9.21697
G1 X89.106 Y74.054 E9.23955
G1 X89.674 Y73.601 E9.27338
G1 X90.074 Y73.301 E9.29666
G1 X90.646 Y72.927 E9.32848
G1 X91.258 Y72.623 E9.3603
G1 X91.694 Y72.458 E9.38201
G1 X92.505 Y72.187 E9.42183
G1 X92.7 Y72.126 E9.43134
G1 X93.204 Y71.977 E9.45581
G1 X93.87 Y71.822 E9.48765
G1 X94.695 Y71.739 E9.52626
G1 X95.217 Y71.728 E9.55057
G1 X100.201 Y71.762 E9.78265
G1 X102.927 Y71.741 E9.90959
G1 X105.563 Y71.648 E10.03241
G1 X108.213 Y71.479 E10.15606
G1 X111.672 Y71.146 E10.31787
G1 X112.813 Y71.015 E10.37135
G1 X113.313 Y70.979 E10.39469
G1 X114.267 Y70.968 E10.43911
G1 X115.061 Y70.979 E10.47609
G1 X115.687 Y71.021 E10.5053
G1 X116.225 Y71.09 E10.53056
G1 X116.628 Y71.153 E10.54955
G1 X117.452 Y71.344 E10.58894
G1 X118.212 Y71.599 E10.62627
G1 X118.842 Y71.864 E10.65809
G1 X119.437 Y72.2 E10.68991
G1 X119.988 Y72.604 E10.72173
G1 X120.489 Y73.069 E10.75355
G1 X121.058 Y73.764 E10.79538
G1 X121.486 Y74.378 E10.83023
G1 X122.415 Y75.747 E10.90727
G1 X122.765 Y76.334 E10.93909
G1 X122.948 Y76.719 E10.95894
G1 X123.283 Y77.498 E10.99843
G1 X123.498 Y78.036 E11.0254
G1 X123.711 Y78.685 E11.05721
G1 X123.847 Y79.355 E11.08904
G1 X123.903 Y79.994 E11.11891
G1 X123.917 Y80.601 E11.14718
G1 X123.945 Y104.477 E12.25895
G1 X123.944 Y105.242 E12.29457
G1 X123.971 Y128.948 E13.39842
G1 X123.963 Y129.604 E13.42897
G1 X123.939 Y130.062 E13.45033
G1 X123.84 Y130.738 E13.48214
G1 X123.619 Y131.587 E13.52299
G1 X123.434 Y132.206 E13.55308
G1 X123.199 Y132.847 E13.58487
G1 X122.89 Y133.457 E13.61671
G1 X122.559 Y133.964 E13.6449
G1 X122.024 Y134.668 E13.68607
G1 X121.513 Y135.304 E13.72406
G1 X121.054 Y135.81 E13.75587
G1 X120.54 Y136.259 E13.78765
G1 X120.026 Y136.614 E13.81674
G1 X119.485 Y136.947 E13.84632
G1 X119.346 Y137.03 E13.85386
G1 X118.865 Y137.308 E13.87973
G1 X118.545 Y137.48 E13.89665
G1 X117.917 Y137.75 E13.92848
G1 X117.302 Y137.934 E13.95837
G1 X116.809 Y138.048 E13.98193
G1 X116.201 Y138.168 E14.01079
G1 X115.186 Y138.277 E14.05832
G1 X114.399 Y138.292 E14.09497
G1 X114.234 Y138.293 E14.10266
G1 X104.193 Y138.201 E14.57023
G1 X95.494 Y138.169 E14.97529
G1 X94.758 Y138.157 E15.00957
G1 X94.029 Y138.107 E15.04359
G1 X93.677 Y138.065 E15.0601
G1 X92.826 Y137.898 E15.10048
G1 X92.45 Y137.795 E15.11864
G1 X91.803 Y137.577 E15.15043
G1 X91.208 Y137.296 E15.18107
G1 X90.821 Y137.086 E15.20157
G1 X90.259 Y136.739 E15.23232
G1 X89.54 Y136.198 E15.27422
G1 X89.295 Y135.995 E15.28904
G1 X88.789 Y135.551 E15.32038
G1 X88.512 Y135.302 E15.33773
G1 X88.031 Y134.816 E15.36957
G1 X87.703 Y134.407 E15.39398
G1 X87.329 Y133.835 E15.4258
G1 X87.037 Y133.251 E15.45621
G1 X86.711 Y132.496 E15.4945
G1 X86.492 Y131.945 E15.52211
G1 X86.281 Y131.295 E15.55393
G1 X86.148 Y130.625 E15.58574
G1 X86.095 Y130.008 E15.61457
G1 X86.081 Y129.303 E15.64741
G1 X86.053 Y105.525 E16.75461
G1 X86.054 Y104.76 E16.79023
G1 X86.027 Y81.022 E17.89557
G1 X86.035 Y80.404 E17.92435
G1 X86.084 Y79.723 E17.95615
G1 X86.212 Y79.052 E17.98795
G1 X86.404 Y78.436 E18.018
G1 X86.691 Y77.668 E18.05617
G1 X86.797 Y77.404 E18.06942
G1 X87.025 Y76.874 E18.09629
G1 X87.416 Y76.121 E18.1358
G1 X87.682 Y75.693 E18.15926
G1 X87.863 Y75.417 E18.17463
G1 X88.271 Y74.869 E18.20644
M204 S3000
M205 X10 Y10
G0 F3000 X88.721 Y75.204
M204 S1800
M205 X8 Y8
G1 F2400 X89.171 Y74.736 E18.23667
G1 X89.455 Y74.492 E18.25411
G1 X90.023 Y74.039 E18.28794
G1 X90.407 Y73.751 E18.31029
G1 X90.952 Y73.398 E18.34052
G1 X91.536 Y73.114 E18.37076
G1 X91.872 Y72.989 E18.38746
G1 X92.683 Y72.718 E18.42727
G1 X92.859 Y72.663 E18.43586
G1 X93.363 Y72.514 E18.46033
G1 X93.996 Y72.368 E18.49058
G1 X94.711 Y72.299 E18.52403
G1 X95.214 Y72.288 E18.54746
G1 X100.202 Y72.322 E18.77972
G1 X102.914 Y72.302 E18.90601
G1 X105.62 Y72.206 E19.03209
G1 X108.241 Y72.039 E19.15438
G1 X111.728 Y71.703 E19.3175
G1 X112.876 Y71.571 E19.37131
G1 X113.646 Y71.53 E19.40722
G1 X114.267 Y71.528 E19.43613
G1 X115.053 Y71.539 E19.47274
G1 X115.619 Y71.577 E19.49915
G1 X116.139 Y71.643 E19.52356
G1 X116.542 Y71.706 E19.54255
G1 X117.287 Y71.879 E19.57817
G1 X118.026 Y72.128 E19.61448
G1 X118.624 Y72.381 E19.64471
G1 X119.187 Y72.706 E19.67498
G1 X119.705 Y73.097 E19.7052
G1 X120.171 Y73.549 E19.73543
G1 X120.599 Y74.084 E19.76733
G1 X121.023 Y74.692 E19.80185
G1 X121.952 Y76.061 E19.87889
G1 X122.283 Y76.62 E19.90914
G1 X122.434 Y76.94 E19.92561
G1 X122.769 Y77.719 E19.9651
G1 X122.977 Y78.242 E19.99131
G1 X123.178 Y78.859 E20.02152
G1 X123.302 Y79.497 E20.05179
G1 X123.343 Y80.012 E20.07584
G1 X123.357 Y80.608 E20.1036
G1 X123.385 Y104.476 E21.215
G1 X123.384 Y105.241 E21.25062
G1 X123.411 Y128.941 E22.35419
G1 X123.403 Y129.597 E22.38474
G1 X123.381 Y130.013 E22.40414
G1 X123.211 Y130.959 E22.44889
G1 X123.044 Y131.56 E22.47794
G1 X122.898 Y132.044 E22.50148
G1 X122.673 Y132.653 E22.53171
G1 X122.374 Y133.23 E22.56197
G1 X121.946 Y133.853 E22.59717
G1 X121.582 Y134.324 E22.62489
G1 X121.077 Y134.953 E22.66245
G1 X120.639 Y135.433 E22.6927
G1 X120.146 Y135.855 E22.72292
G1 X119.733 Y136.137 E22.74621
G1 X119.192 Y136.47 E22.77579
G1 X119.066 Y136.545 E22.78262
G1 X118.585 Y136.823 E22.80849
G1 X118.294 Y136.98 E22.82388
G1 X117.696 Y137.234 E22.85413
G1 X117.17 Y137.39 E22.87968
G1 X116.597 Y137.52 E22.90704
G1 X116.093 Y137.619 E22.93096
G1 X115.176 Y137.717 E22.9739
G1 X114.389 Y137.732 E23.01055
G1 X114.24 Y137.733 E23.01749
G1 X104.199 Y137.641 E23.48506
G1 X95.503 Y137.609 E23.88999
G1 X94.767 Y137.597 E23.92426
G1 X94.095 Y137.551 E23.95563
G1 X93.743 Y137.509 E23.97213
G1 X92.974 Y137.358 E24.00863
G1 X92.598 Y137.255 E24.02678
G1 X91.983 Y137.046 E24.05702
G1 X91.475 Y136.804 E24.08323
G1 X91.088 Y136.594 E24.10373
G1 X90.58 Y136.28 E24.13154
G1 X89.886 Y135.757 E24.172
G1 X89.664 Y135.574 E24.1854
G1 X89.163 Y135.135 E24.21642
G1 X88.886 Y134.886 E24.23376
G1 X88.431 Y134.423 E24.26399
G1 X88.153 Y134.074 E24.28476
G1 X87.8 Y133.529 E24.315
G1 X87.552 Y133.029 E24.34099
G1 X87.226 Y132.274 E24.37928
G1 X87.014 Y131.741 E24.40599
G1 X86.815 Y131.122 E24.43627
G1 X86.694 Y130.484 E24.4665
G1 X86.647 Y129.741 E24.50117
G1 X86.641 Y129.255 E24.5238
G1 X86.613 Y105.526 E25.62872
G1 X86.614 Y104.761 E25.66435
G1 X86.587 Y81.03 E26.76936
G1 X86.595 Y80.412 E26.79814
G1 X86.644 Y79.764 E26.8284
G1 X86.771 Y79.127 E26.85865
G1 X86.929 Y78.632 E26.88284
G1 X87.216 Y77.864 E26.92102
G1 X87.312 Y77.625 E26.93301
G1 X87.54 Y77.095 E26.95988
G1 X87.893 Y76.415 E26.99555
G1 X88.332 Y75.724 E27.03367
G1 X88.721 Y75.204 E27.06391
M204 S3000
M205 X10 Y10
G1 F2400 E21.06391
;MESH:respect_iphone11_case.stl
G0 F3000 X94.675 Y76.928
G0 X95.181 Y78.227
G0 X104.534 Y79.518
M204 S1800
M205 X8 Y8
;TYPE:WALL-INNER
G1 F2400 E27.06391
G1 F1500 X104.143 Y79.518 E27.08212
G1 X104.142 Y79.518 E27.08216
G1 X100.388 Y79.518 E27.25697
G1 X100.379 Y79.546 E27.25834
G1 X99.279 Y82.75 E27.41608
G1 X99.173 Y83.06 E27.43133
G1 X98.884 Y82.906 E27.44077
G1 X98.537 Y82.72 E27.45911
G1 X96.876 Y81.762 E27.54839
G1 X94.326 Y84.727 E27.73049
G1 X94.101 Y84.989 E27.74657
G1 X94.404 Y85.154 E27.7564
G1 X96.45 Y86.27 E27.86492
G1 X97.336 Y86.708 E27.91094
G1 X97.85 Y86.919 E27.93681
G1 X97.58 Y87.709 E27.97569
G1 X97.352 Y87.979 E27.99214
G1 X97.188 Y88.529 E28.01887
G1 X97.211 Y89.146 E28.04762
G1 X97.627 Y89.795 E28.08351
G1 X98.174 Y90.113 E28.11297
G1 X98.668 Y90.26 E28.13697
G1 X98.701 Y90.269 E28.13857
G1 X99.361 Y90.269 E28.1693
G1 X99.812 Y90.269 E28.1903
G1 X99.361 Y90.502 E28.19675
G1 X98.965 Y90.729 E28.20998
G1 X98.935 Y90.746 E28.21155
G1 X98.778 Y90.836 E28.21997
G1 X98.3 Y91.138 E28.2463
G1 X97.819 Y91.47 E28.27352
G1 X97.154 Y91.998 E28.31305
G1 X96.621 Y92.493 E28.34693
G1 X96.537 Y92.58 E28.35256
G1 X96.068 Y93.087 E28.38472
G1 X95.605 Y93.647 E28.41855
G1 X95.213 Y94.168 E28.44891
G1 X94.749 Y94.825 E28.48636
G1 X94.175 Y95.689 E28.53466
G1 X93.895 Y95.869 E28.55016
G1 X93.818 Y95.99 E28.55684
G1 X93.51 Y96.478 E28.58371
G1 X93.444 Y97.181 E28.61659
G1 X93.567 Y97.8 E28.64598
G1 X93.824 Y98.194 E28.66788
G1 X94.881 Y99.813 E28.75791
G1 X95.934 Y99.312 E28.81221
G1 X96.193 Y99.189 E28.82556
G1 X96.309 Y99.451 E28.83412
G1 X96.602 Y100.113 E28.86783
G1 X96.968 Y100.258 E28.88617
G1 X97.048 Y100.289 E28.89016
G1 X97.201 Y100.349 E28.89781
G1 X99.094 Y101.095 E28.99256
G1 X100.239 Y99.397 E29.08792
G1 X100.774 Y98.66 E29.13033
G1 X101.236 Y98.1 E29.16413
G1 X101.288 Y98.042 E29.16776
G1 X101.774 Y97.545 E29.20013
G1 X102.199 Y97.161 E29.2268
G1 X102.622 Y96.808 E29.25245
G1 X104.644 Y95.221 E29.37214
G1 X104.913 Y95.01 E29.38806
G1 X104.652 Y94.789 E29.3978
G1 X102.985 Y93.376 E29.49955
G1 X102.646 Y93.089 E29.52024
G1 X103.052 Y92.908 E29.53217
G1 X104.391 Y92.311 E29.60044
G1 X104.405 Y92.304 E29.60116
G1 X104.406 Y92.303 E29.60123
G1 X104.685 Y92.18 E29.61543
G1 X104.536 Y91.913 E29.6244
G1 X104.294 Y91.48 E29.6475
G1 X102.812 Y88.827 E29.789
G1 X101.658 Y89.373 E29.84845
G1 X101.657 Y89.374 E29.84851
G1 X101.059 Y89.656 E29.8793
G1 X101.272 Y89.03 E29.89592
G1 X101.273 Y89.029 E29.89598
G1 X104.407 Y79.888 E30.34595
G1 X104.534 Y79.518 E30.35676
M204 S3000
M205 X10 Y10
G0 F3000 X104.827 Y90.186
M204 S1800
M205 X8 Y8
G1 F1500 X104.827 Y90.476 E30.37026
G1 X104.827 Y90.477 E30.37031
G1 X104.827 Y91.378 E30.41226
G1 X104.827 Y92.18 E30.44961
G1 X104.827 Y92.502 E30.4646
G1 X104.827 Y93.11 E30.49291
G1 X106.388 Y93.521 E30.56808
G1 X106.607 Y93.614 E30.57915
G1 X106.875 Y93.857 E30.596
G1 X107.614 Y94.757 E30.65022
G1 X108.547 Y95.862 E30.71757
G1 X107.655 Y96.774 E30.77697
G1 X107.219 Y97.147 E30.80369
G1 X107.079 Y97.191 E30.81052
G1 X105.483 Y97.457 E30.88586
G1 X105.483 Y100.208 E31.01396
G1 X105.483 Y100.209 E31.01401
G1 X105.483 Y100.502 E31.02765
G1 X105.776 Y100.487 E31.03636
G1 X107.696 Y100.387 E31.12588
G1 X108.4 Y100.37 E31.15867
G1 X109.153 Y100.387 E31.19374
G1 X109.238 Y100.391 E31.19771
G1 X109.238 Y100.49 E31.20232
G1 X110.302 Y100.443 E31.25191
G1 X111.404 Y100.497 E31.30328
G1 X111.404 Y100.394 E31.30808
G1 X111.644 Y100.384 E31.31926
G1 X112.645 Y100.37 E31.36588
G1 X113.214 Y100.377 E31.39238
G1 X113.499 Y100.384 E31.40565
G1 X114.063 Y100.403 E31.43193
G1 X115.684 Y100.482 E31.5075
G1 X115.976 Y100.496 E31.52111
G1 X115.976 Y100.204 E31.5298
G1 X115.976 Y100.203 E31.52984
G1 X115.976 Y97.472 E31.65701
G1 X114.808 Y97.261 E31.71228
G1 X114.801 Y96.649 E31.74077
G1 X114.801 Y93.904 E31.86859
G1 X114.808 Y93.411 E31.89155
G1 X115.976 Y93.198 E31.94684
G1 X115.976 Y90.485 E32.07316
G1 X115.976 Y90.484 E32.07321
G1 X115.976 Y90.196 E32.08662
G1 X115.688 Y90.205 E32.09523
G1 X113.427 Y90.284 E32.20057
G1 X112.421 Y90.303 E32.24743
G1 X111.98 Y90.297 E32.26796
G1 X110.561 Y90.242 E32.33409
G1 X110.334 Y90.242 E32.34466
G1 X109.233 Y90.289 E32.39597
G1 X108.261 Y90.303 E32.44124
G1 X107.303 Y90.289 E32.48585
G1 X105.117 Y90.198 E32.58773
G1 X104.827 Y90.186 E32.59637
M204 S3000
M205 X10 Y10
G0 F3000 X103.749 Y94.987
G0 X98.816 Y100.202
G0 X94.331 Y103.372
G0 X93.619 Y106.897
M204 S1800
M205 X8 Y8
G1 F1500 X93.295 Y107.51 E32.62866
G1 X93.295 Y106.898 E32.63619
G1 X93.295 Y106.617 E32.64927
G1 X93.292 Y103.519 E32.79353
G1 X93.292 Y103.246 E32.80624
G1 X93.463 Y103.46 E32.81297
G1 X95.084 Y105.489 E32.9339
G1 X95.24 Y105.684 E32.94553
G1 X95.288 Y105.744 E32.9491
G1 X95.131 Y105.772 E32.9523
G1 X94.912 Y105.892 E32.96058
G1 X94.297 Y106.228 E32.99322
G1 X93.819 Y106.7 E33.0245
G1 X93.619 Y106.897 E33.03502
M204 S3000
M205 X10 Y10
G0 F3000 X93.806 Y108.992
G0 X94.473 Y109.876
G0 X103.914 Y110.646
G0 X105.302 Y112.503
G0 X103.326 Y115.74
M204 S1800
M205 X8 Y8
G1 F1500 X102.954 Y115.763 E33.05238
G1 X102.071 Y115.819 E33.09357
G1 X101.602 Y115.848 E33.11545
G1 X101.118 Y115.879 E33.13804
G1 X101.582 Y115.54 E33.14761
G1 X101.974 Y115.28 E33.16475
G1 X102.105 Y115.193 E33.17208
G1 X102.922 Y114.683 E33.21692
G1 X104.044 Y114.035 E33.27725
G1 X106.114 Y112.893 E33.38734
G1 X106.395 Y112.738 E33.40228
G1 X106.203 Y112.481 E33.41158
G1 X106.07 Y112.304 E33.42189
G1 X104.113 Y109.695 E33.57376
G1 X101.733 Y111.036 E33.70096
